X:60
T:Miko Doyle's
T:Old Favourite, The
R:slide
H:Also played in G, #22
D:Sean Ryan: Siuil Uait
Z:id:hn-slide-60
M:6/8
K:A
c2c cBc|ecB A2e|efe efe|efe c2B|
c2c cBc|ecB A2e|eaf ecB|1 ABA A2B:|2 ABA Ace||
|:~a3 gag|fgf e2c|efe efe|efe c2e|
~a3 gag|fgf e2c|1 eaf ecB|ABA Ace:|2 eaf eaf|eaf ecB||
<end>
<start>
